X: 38968
T: Swaggering Rake, The
R: slip jig
M: 9/8
K: Edorian
B2A GEF G2A|~B3 BAB dBA|B2A GEF G2A|Bee efe dBA:|
|:Bee e2f ~g3|Bee efe dBA|1 Bee e2f g2a|bag age dBA:|2 edB e2f g2a|bag age dBA||

